img/icon-barf/variety.svg

<svg width="20" height="19" viewBox="0 0 20 19" fill="none" xmlns="http://www.w3.org/2000/svg">
<path d="M19.5887 5.82541C19.8582 5.46132 20 5.04329 20 4.5983C20 3.41164 18.9929 2.45422 17.7447 2.45422C17.2766 2.45422 16.8369 2.58907 16.4539 2.84528C16.0709 2.58907 15.6312 2.45422 15.1631 2.45422C14.695 2.45422 14.2553 2.58907 13.8723 2.84528C13.5035 2.60255 13.0496 2.45422 12.5816 2.45422C12.1135 2.45422 11.6738 2.58907 11.2908 2.84528C10.9078 2.58907 10.4539 2.45422 10 2.45422C9.51773 2.45422 9.07801 2.60255 8.70922 2.84528C8.32624 2.58907 7.88652 2.45422 7.41844 2.45422C6.95035 2.45422 6.51064 2.58907 6.12766 2.84528V1.05181L4.28369 0H3.5461V2.84528C2.95035 3.24982 2.58156 3.89709 2.58156 4.5983C2.58156 5.78495 3.58865 6.74237 4.83688 6.74237C5.30496 6.74237 5.74468 6.60752 6.12766 6.35131C6.51064 6.60752 6.95035 6.74237 7.41844 6.74237C7.88652 6.74237 8.34042 6.60752 8.70922 6.35131C9.07801 6.60752 9.53191 6.74237 10 6.74237C10.4681 6.74237 10.9078 6.60752 11.2908 6.35131C11.6596 6.60752 12.1135 6.74237 12.5816 6.74237C13.0496 6.74237 13.4894 6.60752 13.8723 6.35131C14.2411 6.60752 14.6809 6.74237 15.1489 6.74237C15.2624 6.74237 15.3901 6.72889 15.5035 6.7154C15.4894 6.82328 15.4752 6.93116 15.4752 7.05252C15.4752 7.17388 15.4894 7.28176 15.5035 7.38964C14.9362 7.30873 14.3404 7.43009 13.8582 7.75373C13.5035 7.49752 13.0496 7.36267 12.5816 7.36267C12.1135 7.36267 11.6738 7.49752 11.2908 7.75373C10.9078 7.49752 10.4539 7.36267 10 7.36267C9.53191 7.36267 9.0922 7.49752 8.70922 7.75373C8.34042 7.49752 7.90071 7.36267 7.41844 7.36267C6.95035 7.36267 6.49645 7.49752 6.12766 7.75373C5.74468 7.49752 5.30496 7.36267 4.83688 7.36267C4.36879 7.36267 3.92908 7.49752 3.5461 7.75373C3.16312 7.49752 2.7234 7.36267 2.25532 7.36267C1.00709 7.36267 0 8.32008 0 9.50674C0 9.96522 0.141844 10.3833 0.411347 10.7339C0.141844 11.0845 0 11.516 0 11.961C0 12.406 0.141844 12.824 0.411347 13.1881C0.156028 13.5252 0 13.9567 0 14.4017C0 15.5884 1.00709 16.5458 2.25532 16.5458C2.7234 16.5458 3.1773 16.3974 3.5461 16.1547C3.92908 16.4109 4.36879 16.5458 4.83688 16.5458C5.30496 16.5458 5.74468 16.4109 6.12766 16.1547C6.51064 16.4109 6.95035 16.5458 7.41844 16.5458C7.88652 16.5458 8.34042 16.3974 8.70922 16.1547C9.0922 16.4109 9.53191 16.5458 10 16.5458C10.4681 16.5458 10.9078 16.4109 11.2908 16.1547C11.6596 16.3974 12.1135 16.5458 12.5816 16.5458C13.0496 16.5458 13.4894 16.4109 13.8723 16.1547V17.9482L15.7163 19H16.4539V16.1547C17.0496 15.7502 17.4184 15.1029 17.4184 14.4017C17.4184 13.215 16.4113 12.2576 15.1631 12.2576C14.695 12.2576 14.2553 12.3925 13.8723 12.6487C13.4894 12.3925 13.0355 12.2576 12.5816 12.2576C12.1135 12.2576 11.6738 12.3925 11.2908 12.6487C10.922 12.406 10.4823 12.2576 10 12.2576C9.53191 12.2576 9.0922 12.3925 8.70922 12.6487C8.32624 12.3925 7.88652 12.2576 7.41844 12.2576C6.95035 12.2576 6.51064 12.3925 6.12766 12.6487C5.74468 12.3925 5.30496 12.2576 4.83688 12.2576C4.7234 12.2576 4.59574 12.2711 4.48227 12.2846C4.49645 12.1767 4.51064 12.0688 4.51064 11.9475C4.51064 11.8396 4.49645 11.7182 4.48227 11.6104C4.59574 11.6238 4.70922 11.6373 4.83688 11.6373C5.31915 11.6373 5.75887 11.489 6.12766 11.2463C6.49645 11.516 6.95035 11.6508 7.41844 11.6508C7.88652 11.6508 8.32624 11.516 8.70922 11.2598C9.07801 11.5025 9.53191 11.6508 10 11.6508C10.4681 11.6508 10.9078 11.516 11.2908 11.2598C11.6738 11.516 12.1135 11.6508 12.5816 11.6508C13.0496 11.6508 13.4894 11.516 13.8723 11.2598C14.2411 11.5025 14.695 11.6508 15.1631 11.6508C15.6454 11.6508 16.0851 11.5025 16.4539 11.2598C16.8369 11.516 17.2766 11.6508 17.7447 11.6508C18.9929 11.6508 20 10.6934 20 9.50674C20 9.06175 19.8582 8.64372 19.5887 8.27963C19.8582 7.91554 20 7.49752 20 7.05252C19.9858 6.59404 19.844 6.17601 19.5887 5.82541ZM18.9362 8.4819C19.2057 8.76508 19.3475 9.12917 19.3475 9.50674C19.3475 10.3563 18.6241 11.044 17.7305 11.044C17.4468 11.044 17.1631 10.9631 16.922 10.8417C17.2199 10.4776 17.4043 10.0192 17.4043 9.52023H16.766C16.766 10.3698 16.0426 11.0575 15.1489 11.0575C14.4681 11.0575 13.8582 10.6529 13.6312 10.0326L13.0213 10.2214C13.1064 10.4507 13.2199 10.6529 13.3759 10.8282C12.7943 11.1384 12.0142 11.0845 11.5035 10.6395L11.2908 10.4642L11.0638 10.6395C10.7801 10.8957 10.3972 11.0305 10 11.0305C9.31915 11.0305 8.7234 10.626 8.48227 10.0192L7.87234 10.2349C7.95745 10.4507 8.07092 10.6529 8.22695 10.8282C7.7305 11.0845 7.10638 11.0845 6.62411 10.8282C6.9078 10.4642 7.0922 10.0057 7.0922 9.50674H6.4539C6.4539 10.3563 5.7305 11.044 4.83688 11.044C4.62411 11.044 4.42553 11.0035 4.24113 10.9361C4.05674 10.6125 3.78723 10.3428 3.46099 10.1405L3.10638 10.6529C3.57447 10.9361 3.85816 11.4216 3.85816 11.9475C3.85816 12.1498 3.8156 12.3385 3.74468 12.5138C3.04965 12.8779 2.56738 13.5791 2.56738 14.3882H3.20567C3.20567 13.5387 3.92908 12.851 4.82269 12.851C5.21986 12.851 5.60284 12.9858 5.90071 13.242L6.11347 13.4308L6.32624 13.242C6.85106 12.8375 7.63121 12.77 8.22695 13.0802C7.91489 13.4578 7.74468 13.9163 7.74468 14.4017H8.38298C8.38298 13.9702 8.58156 13.5522 8.92199 13.2555C9.21986 13.0128 9.60284 12.8779 10 12.8779C10.8936 12.8779 11.617 13.5656 11.617 14.4152H12.2553C12.2553 13.9163 12.0709 13.4578 11.773 13.0937C12.3546 12.7835 13.1348 12.8375 13.6596 13.269L13.8723 13.4578L14.0851 13.269C14.383 13.0128 14.766 12.8779 15.1631 12.8779C16.0567 12.8779 16.7801 13.5656 16.7801 14.4152C16.7801 14.9546 16.4681 15.467 15.9716 15.7367L15.8156 15.8311V18.3527L14.5248 17.6111V15.8311L14.3688 15.7367C14.2695 15.6828 14.1844 15.6153 14.0993 15.5479L13.8865 15.3591L13.6738 15.5479C13.3759 15.8041 12.9929 15.939 12.5957 15.939C11.9291 15.939 11.3191 15.5479 11.0922 14.9546L10.4823 15.1703C10.5674 15.3726 10.6809 15.5614 10.8227 15.7367C10.3262 15.9929 9.70213 15.9929 9.21986 15.7367C9.37589 15.5479 9.48936 15.3456 9.57447 15.1164L8.93617 14.9141C8.70922 15.5344 8.09929 15.939 7.41844 15.939C7.02128 15.939 6.6383 15.8041 6.34043 15.5479L6.12766 15.3591L5.91489 15.5479C5.40425 15.9794 4.62411 16.0468 4.04255 15.7232C4.19858 15.5344 4.31206 15.3321 4.39716 15.1029L3.78723 14.9006C3.56028 15.5209 2.95035 15.9255 2.2695 15.9255C1.37589 15.9255 0.652482 15.2378 0.652482 14.3882C0.652482 13.5387 1.37589 12.851 2.2695 12.851V12.2576C1.74468 12.2576 1.26241 12.4329 0.879433 12.7161C0.737589 12.4869 0.666667 12.2172 0.666667 11.9475C0.666667 11.6778 0.737589 11.4081 0.879433 11.1788C1.1773 11.3946 1.51773 11.5429 1.91489 11.6104L2.01418 11.0035C1.21986 10.8957 0.638298 10.2619 0.638298 9.50674C0.638298 8.6572 1.3617 7.96948 2.25532 7.96948C2.65248 7.96948 3.03546 8.10433 3.33333 8.36054L3.5461 8.54933L3.75887 8.36054C4.2695 7.92903 5.04964 7.8616 5.63121 8.18524C5.48936 8.36054 5.37589 8.56281 5.29078 8.79205L5.90071 8.99432C6.12766 8.38751 6.73759 7.96948 7.41844 7.96948C8.31206 7.96948 9.03546 8.6572 9.03546 9.50674H9.67376C9.67376 9.00781 9.48936 8.54933 9.19149 8.18524C9.77305 7.87509 10.5532 7.92903 11.0638 8.36054L11.2766 8.54933L11.5035 8.36054C11.8014 8.10433 12.1844 7.96948 12.5816 7.96948C13.461 7.96948 14.1844 8.6572 14.1844 9.50674H14.8227C14.8227 9.00781 14.6383 8.54933 14.3404 8.18524C14.766 7.956 15.2908 7.91554 15.7589 8.09084C15.844 8.22569 15.9433 8.36054 16.0567 8.4819L16.539 8.07736C16.2695 7.79418 16.1277 7.43009 16.1277 7.05252C16.1277 6.85025 16.1702 6.66146 16.2411 6.47268C16.383 6.39177 16.5248 6.29737 16.6525 6.1895L16.2269 5.73101C15.9291 5.98722 15.5461 6.12207 15.1489 6.12207C14.4681 6.12207 13.8582 5.71753 13.6312 5.09723L13.0213 5.31299C13.1064 5.54223 13.2199 5.7445 13.3759 5.9198C12.7943 6.22995 12.0142 6.17601 11.5035 5.7445L11.2908 5.55571L11.0638 5.7445C10.5532 6.17601 9.77305 6.22995 9.19149 5.9198C9.33333 5.7445 9.46099 5.54223 9.5461 5.31299L8.93617 5.11072C8.70922 5.71753 8.09929 6.13556 7.41844 6.13556C7.02128 6.13556 6.6383 6.00071 6.34043 5.7445L6.12766 5.55571L5.91489 5.7445C5.61702 5.98723 5.23404 6.13556 4.83688 6.13556C3.94326 6.13556 3.21986 5.44783 3.21986 4.5983C3.21986 4.05891 3.53191 3.54649 4.02837 3.27679L4.1844 3.1824V0.660752L5.47518 1.40241V3.1824L5.63121 3.27679C5.7305 3.33073 5.8156 3.39815 5.90071 3.46558L6.12766 3.64088L6.34043 3.45209C6.85106 3.02058 7.63121 2.96664 8.22695 3.27679C7.91489 3.64088 7.74468 4.09936 7.74468 4.5983H8.38298C8.38298 3.74876 9.10638 3.06104 10 3.06104C10.3972 3.06104 10.7801 3.19588 11.078 3.45209L11.2908 3.64088L11.5035 3.45209C11.8014 3.19588 12.1844 3.06104 12.5816 3.06104C13.461 3.06104 14.1844 3.74876 14.1844 4.5983H14.8227C14.8227 4.09936 14.6383 3.64088 14.3404 3.27679C14.922 2.96664 15.7021 3.02058 16.2269 3.45209L16.4397 3.64088L16.6525 3.45209C16.9504 3.19588 17.3333 3.06104 17.7305 3.06104C18.6241 3.06104 19.3475 3.74876 19.3475 4.5983C19.3475 4.86799 19.2624 5.13769 19.1348 5.36693C18.7518 5.08375 18.2695 4.90845 17.7447 4.90845V5.51526C18.6383 5.51526 19.3617 6.20298 19.3617 7.05252C19.3617 7.43009 19.2199 7.79418 18.9504 8.07736L18.7518 8.27963L18.9362 8.4819Z" fill="#961914"/>
</svg>

<svg width="20" height="19" fill="none" xmlns="http://www.w3.org/2000/svg"><path d="M19.589 5.825c.27-.364.411-.782.411-1.227 0-1.186-1.007-2.144-2.255-2.144a2.3 2.3 0 00-1.291.391 2.297 2.297 0 00-1.29-.39 2.3 2.3 0 00-1.292.39 2.37 2.37 0 00-1.29-.39c-.469 0-.908.134-1.291.39a2.331 2.331 0 00-2.582 0 2.297 2.297 0 00-1.29-.39c-.469 0-.908.134-1.291.39V1.052L4.284 0h-.738v2.845c-.596.405-.964 1.052-.964 1.753 0 1.187 1.007 2.144 2.255 2.144.468 0 .908-.134 1.29-.39.384.256.823.39 1.291.39.469 0 .922-.134 1.291-.39.369.256.823.39 1.291.39.468 0 .908-.134 1.29-.39.37.256.824.39 1.292.39.468 0 .907-.134 1.29-.39a2.22 2.22 0 001.277.39c.113 0 .241-.013.355-.027a2.378 2.378 0 00-.029.338c0 .12.014.229.029.337a2.367 2.367 0 00-1.646.364 2.188 2.188 0 00-1.276-.391c-.469 0-.908.135-1.291.39a2.331 2.331 0 00-2.582 0 2.232 2.232 0 00-1.29-.39 2.27 2.27 0 00-1.291.39 2.297 2.297 0 00-1.291-.39c-.468 0-.908.135-1.29.39a2.297 2.297 0 00-1.292-.39C1.007 7.363 0 8.32 0 9.507c0 .458.142.876.411 1.227a2.038 2.038 0 000 2.454A2.032 2.032 0 000 14.402c0 1.186 1.007 2.144 2.255 2.144.468 0 .922-.149 1.291-.391.383.256.823.39 1.29.39a2.3 2.3 0 001.292-.39c.383.256.822.39 1.29.39.469 0 .922-.148 1.291-.39.383.256.823.39 1.291.39.468 0 .908-.134 1.29-.39.37.242.824.39 1.292.39.468 0 .907-.134 1.29-.39v1.793L15.716 19h.738v-2.845c.596-.405.964-1.052.964-1.753 0-1.187-1.007-2.144-2.255-2.144-.468 0-.908.135-1.29.39a2.331 2.331 0 00-2.582 0 2.335 2.335 0 00-1.291-.39c-.468 0-.908.135-1.29.39a2.297 2.297 0 00-1.292-.39c-.468 0-.907.135-1.29.39a2.297 2.297 0 00-1.646-.363c.014-.108.029-.216.029-.338a2.7 2.7 0 00-.029-.337 2.335 2.335 0 001.645-.364c.37.27.823.405 1.291.405.469 0 .908-.135 1.291-.391.369.242.823.39 1.291.39.468 0 .908-.134 1.29-.39.384.256.824.39 1.292.39.468 0 .907-.134 1.29-.39.37.242.823.39 1.291.39.482 0 .922-.148 1.29-.39.384.256.824.39 1.292.39 1.248 0 2.255-.957 2.255-2.143a2.04 2.04 0 00-.411-1.227c.27-.364.411-.782.411-1.227a2.173 2.173 0 00-.411-1.228zm-.653 2.657c.27.283.412.647.412 1.025 0 .85-.724 1.537-1.617 1.537-.284 0-.568-.08-.809-.202.298-.364.482-.823.482-1.322h-.638c0 .85-.723 1.537-1.617 1.537-.68 0-1.29-.404-1.518-1.024l-.61.188c.085.23.199.432.355.607-.582.31-1.362.257-1.872-.188l-.213-.176-.227.175a1.583 1.583 0 01-1.064.392 1.62 1.62 0 01-1.518-1.012l-.61.216c.085.216.199.418.355.593a1.767 1.767 0 01-1.603 0c.284-.364.468-.822.468-1.321h-.638c0 .85-.723 1.537-1.617 1.537-.213 0-.411-.04-.596-.108a2.257 2.257 0 00-.78-.796l-.355.513c.468.283.752.769.752 1.294a1.5 1.5 0 01-.113.567c-.695.364-1.178 1.065-1.178 1.874h.639c0-.85.723-1.537 1.617-1.537.397 0 .78.135 1.078.391l.212.189.213-.189a1.824 1.824 0 011.901-.162 2.06 2.06 0 00-.482 1.322h.638c0-.432.199-.85.539-1.146A1.71 1.71 0 0110 12.877c.894 0 1.617.688 1.617 1.537h.638c0-.499-.184-.957-.482-1.321.582-.31 1.362-.256 1.887.175l.212.189.213-.189a1.649 1.649 0 011.078-.391c.894 0 1.617.688 1.617 1.537 0 .54-.312 1.052-.808 1.322l-.156.094v2.522l-1.291-.742v-1.78l-.156-.094c-.1-.054-.185-.122-.27-.19l-.213-.188-.212.189a1.649 1.649 0 01-1.078.391c-.667 0-1.277-.391-1.504-.984l-.61.215c.085.203.199.391.34.567a1.767 1.767 0 01-1.602 0 2.1 2.1 0 00.354-.62l-.638-.203c-.227.62-.837 1.025-1.518 1.025-.397 0-.78-.135-1.078-.391l-.212-.189-.213.189c-.51.431-1.29.499-1.872.175a2.1 2.1 0 00.354-.62l-.61-.202c-.227.62-.837 1.024-1.518 1.024-.893 0-1.617-.687-1.617-1.537 0-.85.724-1.537 1.617-1.537v-.593a2.34 2.34 0 00-1.39.458 1.465 1.465 0 01-.212-.768c0-.27.07-.54.212-.77a2.41 2.41 0 001.036.432l.1-.606C1.22 10.896.637 10.262.637 9.507c0-.85.724-1.538 1.617-1.538.397 0 .78.135 1.078.392l.213.188.213-.188c.51-.432 1.29-.5 1.872-.176a2.14 2.14 0 00-.34.607l.61.202c.227-.606.837-1.025 1.517-1.025.894 0 1.617.688 1.617 1.538h.639c0-.5-.185-.958-.483-1.322.582-.31 1.362-.256 1.873.176l.213.188.227-.188a1.64 1.64 0 011.078-.392c.879 0 1.602.688 1.602 1.538h.639c0-.5-.185-.958-.483-1.322.426-.229.95-.27 1.419-.094.085.135.184.27.298.39l.482-.404a1.478 1.478 0 01-.411-1.024c0-.203.042-.392.113-.58.142-.081.284-.176.412-.284l-.426-.458c-.298.256-.68.391-1.078.391-.68 0-1.29-.404-1.518-1.025l-.61.216c.085.23.199.432.355.607-.582.31-1.362.256-1.872-.175l-.213-.19-.227.19c-.51.431-1.291.485-1.873.175a2.17 2.17 0 00.355-.607l-.61-.202c-.227.607-.837 1.025-1.518 1.025-.397 0-.78-.135-1.078-.391l-.212-.19-.213.19c-.298.242-.681.39-1.078.39-.894 0-1.617-.687-1.617-1.537 0-.54.312-1.052.808-1.321l.156-.095V.661l1.291.741v1.78l.156.095c.1.054.185.121.27.189l.227.175.212-.189c.511-.431 1.291-.485 1.887-.175a2.007 2.007 0 00-.482 1.321h.638c0-.85.723-1.537 1.617-1.537.397 0 .78.135 1.078.391l.213.189.213-.189c.297-.256.68-.391 1.078-.391.879 0 1.602.688 1.602 1.537h.639c0-.499-.185-.957-.483-1.321.582-.31 1.362-.256 1.887.175l.213.189.212-.189a1.649 1.649 0 011.078-.391c.894 0 1.617.688 1.617 1.537 0 .27-.085.54-.212.769a2.337 2.337 0 00-1.39-.459v.607c.893 0 1.617.688 1.617 1.538 0 .377-.142.741-.412 1.024l-.198.203.184.202z" fill="#961914"/></svg>
